X: 83
T:Hast to the Wedding. JBi.82
M:6/8
Q:120
S:James Biggins MS,Leeds,1779
R:Jig
O:England
A:Yorkshire
N:Hast = Haste
Z:vmp.Chris Partington
K:C
"as writ"GEG Gge|dAd edA|GEG AcE|DDDD3|!
GEG Gge|dAd edA|GEG ege|cccc3::!
geg geg|afa afa|geg geg|fddd3|!
efge3|dcd edA|GEG ege|cccc3:||
